X:1
T:Agnes Waltz
C:William Hannah (1891-1961)
S:from Roger Malton 2015-10-9
L:1/4
M:3/4
K:G
D |\
"G"B, C ^C | "D7"D E3/ D/ | "G"B3 | "G/D"B3 |\
"G"B, C ^C | "Em"D E3/ D/ | "D7"F3- | "D7/A"F3 |
"D7"C D E | "D7/A"F E3/ D/ | "D7"c3 | "D7/A"c3 |\
"Am"C D E | "D7"F E3/ D/ | "D7/G /F# /E"B3 | "D7"D"D7/E"_D"D7/F#"C |]
[|\
"G"B, C ^C | "G/D"D E3/ D/ | "G"B3 | "G/D"B3 |\
"G"B _B =B | "G7/B"d c3/ A/ | "C"E3 | "C/G"E3 |
"C"G3 | "D7"F2 E | "G"D G B | "Em"d c A |\
"A7"E3 | "D7"F3 | "G /D /B"G3- | "G"G3 |]
[|\
"G"B3/ B/ B | "G/D"B ^A B | "G"d3 | "Em"B3 |\
"Am"A3/ A/ A | "D7"A ^G A | "G"B3 | "G"B3 |
"Em"B3/ B/ B | "Em/B"e2 B | "Em"B3 | "A7"A _A =A |\
"Am"e3 | "Cm"_e3 | "D7"d3- | "D7/A"d3 |]
[|\
"G"B3/ B/ B | "G/D"B ^A B | "G"d3 | "Em"B3 |\
"Am"A3/ A/ A | "D7"A _A =A | "G"B3 | "G"B"G/A"c"G/B"d |
"C"e3 | "D7"f2 e | "G"d c A | "C"E G c |\
"G/D"B3 | "D7"A3 | "G"G3- | "G"G3 |]
[|\
"G"B3 | "G/D"B3 | "D7"d/d/ d c | "D7/A"A3 |\
"D7"c3 | "D7/A"c3 | "Am"e/e/ e"D7"d | "G"B3 |
"Em"g3 | "Em"g f e | "Em"g3 | "Em/B"B3 |\
"A7"A ^G A | "A7/E"A f e | "Am"d3 | "D7"c3 |]
[|\
"G"B3 | "G/D"B3 | "D7"d d c | "D7/A"A3 |\
"D7"c3 | "D7/A"c3 | "Am"e/e/ e"D7"d | "G"B3 |
"G"g3 | "G7/B"G B f | "C"e2 d | "C"E G c |\
"G/D"B3 | "D7"A3 | "G /D /B"G3 | "G"G2"D7"D |]
|:\
"G"G G/D/G/B/ | "G7/B"d B d | "C"e e/c/e/g/ | "G/B"d2 B |\
"Am"A A/^G/A/d/ | "D7"f2 e | "Am"d/^c/e/d/"D7"^c/d/ | "G"B2"D7"D ||
"G"G G/D/G/B/ | "G7/B"d B d | "C"e e/c/e/g/ | "G/B"d2 g |\
"D7"f e d | "D"c"D/E"E"D/F#"F | "G /D /B"G3 | "G"G2"D7"D :|
[|\
"G"B, C ^C | "G/D"D E3/ D/ | "G"B3 | "G/D"B3 |\
"G"B, C ^C | "Em"D E3/ D/ | "D7"F3- | "D7/A"F3 |
"D7"C D E | "D7/A"F E3/ D/ | "D7"c3- | "D7/A"c3 |\
"Am"C D E | "D7"F E3/ D/ | "G"B3 | "G/D"D"G/E"_D"G/F#"C |]
[|\
"G"B, C ^C | "G/D"D E3/ D/ | "G"B3 | "G/D"B3 |\
"G"B _B =B | "G7/B"d c3/ A/ | "C"E3- | "C/G"E3 |
"C"G3 | "D7"F2 E | "G"D G B | "Em"d c A |\
"A7"E3 | "D7"F3 | "G"G3 | "G"G z2 |]
